src/icons/icons_set_stations/000-station-teleski.svg

<svg viewBox="0 0 200 200" xmlns="http://www.w3.org/2000/svg"><path d="m175.1 87.59v-10.17l-150.2-61.55v10.13l61.72 25.33v36.1h-21.78a29.75 29.75 0 0 0 -29.76 29.75v37.19a29.76 29.76 0 0 0 29.76 29.76h50.58a29.75 29.75 0 0 0 29.75-29.76v-37.19a29.75 29.75 0 0 0 -29.75-29.75h-20.74v-32.8zm-106.25 56.57h-24.5v-33.52h24.5zm42.55-33.52h24.5v33.52h-24.5zm-9 33.52h-24.52v-33.52h24.5z" fill="#000201"/></svg>

<svg id="Icons" xmlns="http://www.w3.org/2000/svg" viewBox="0 0 200 200"><defs><style>.cls-1{fill:#000201;}</style></defs><title>cable-car</title><path class="cls-1" d="M175.1,87.59V77.42L24.9,15.87V26L86.62,51.33v36.1H64.84a29.75,29.75,0,0,0-29.76,29.75v37.19a29.76,29.76,0,0,0,29.76,29.76h50.58a29.75,29.75,0,0,0,29.75-29.76V117.18a29.75,29.75,0,0,0-29.75-29.75H94.68V54.63ZM68.85,144.16H44.35V110.64h24.5Zm42.55-33.52h24.5v33.52H111.4Zm-9,33.52H77.88V110.64h24.5Z"/></svg>
